X:195
T:Speed the Plough TS.195
M:C
L:1/8
Q:1/2=70
S:Thomas Sands’ MS,1810,Lincolnshire
R:country dance
O:England;Lincolnshire
Z:vmp.Ruairidh Greig, 2011
K:A
A>AA>c e>fe>c|e>ae>c e>fe>c|d>ed>B c>ec>A|FB{c}BA GBB2|
A>AA>c e>fe>c|e>ae>c e>fe>c|d>ec>d B>cA>B|F>AG>B A>AA2|]
a>aa>A a>Ae>A|aq>Ag>A f>Ae>A|d>dd>B c>cc>A|B>FB>A G>B B>e|
(c//B/<A) e>A a>Ae>A|f>dB>f e>cA>e|d>ec>d B>cA>B|F>AG>B A>AA2|]

